X:57
T:James Knight’s Hornpipe,aka. JBu.57
O:England,South Yorkshire
S:Joshua Burnett’s MS,c1835,S.Yorkshire
M:C
L:1/8
Q:1/2=80
R:.hornpipe
N:Remarkably there was one Rev.James Knight, perpetual curate of
N:St.Paul’s Church,(demolished 1938) Sheffield, who in 1831 wrote a book called
N:’Discourses on the Principal Miracles of Our Lord’, some of which
N:involved making blind men see.
C:By James Knight a Blindman
C:untitled in MS, titled per above inscription
Z:vmp.R.Greig.2011
K:F
cB|AFGA Bcde|fage fccA|Bcdc BAGF|EGcB cdcB|
AFGA Bcde|fage fccA|Bcdc BAGF|G2F2F2:|
|:cB|Af (3fef af (3fef|Bg(3 gfg bg (3gfg|bgaf gefd|efge cBAG|
Af (3fef af (3fef|Bg (3gfg bg (3gfg|bagf efge|f2f2f2:|

